icons/tokens/0x2f08119C6f07c006695E079AAFc638b8789FAf18/logo.svg

<svg xmlns="http://www.w3.org/2000/svg" width="32" height="32" viewBox="0 0 32 32">
  <g fill="none" fill-rule="evenodd">
    <path fill="#FFF" d="M32,15.999936 C32,13.905856 31.58336,11.811776 30.78208,9.877056 C29.98048,7.942336 28.79424,6.166976 27.3136,4.686336 C25.83296,3.205376 24.0576,2.019456 22.12288,1.217856 C20.18816,0.416576 18.09408,-6.4e-05 16,-6.4e-05 C13.90592,-6.4e-05 11.81152,0.416576 9.8768,1.217856 C7.94208,2.019456 6.16704,3.205376 4.68608,4.686336 C3.20544,6.166976 2.0192,7.942336 1.21792,9.877056 C0.41632,11.811776 0,13.905856 0,15.999936 C0,18.094016 0.41632,20.188096 1.21792,22.122816 C2.0192,24.057536 3.20544,25.832896 4.68608,27.313856 C6.16704,28.794496 7.94208,29.980736 9.8768,30.782016 C11.81152,31.583296 13.90592,31.999936 16,31.999936 C18.09408,31.999936 20.18816,31.583296 22.12288,30.782016 C24.0576,29.980736 25.83296,28.794496 27.3136,27.313856 C28.79424,25.832896 29.98048,24.057536 30.78208,22.122816 C31.58336,20.188096 32,18.094016 32,15.999936 Z"/>
    <path fill="#0657F9" d="M11.85472,3.383616 C13.34528,2.893696 14.93824,2.669696 16.51616,2.730176 C18.0944,2.790656 19.65792,3.135936 21.11296,3.743936 C22.56832,4.351936 23.9152,5.222976 25.06752,6.297536 C26.59168,7.719296 27.77504,9.497536 28.4848,11.486656 C29.19488,13.476096 29.43136,15.676416 29.15744,17.771136 C28.88384,19.865856 28.09984,21.855296 26.91392,23.566016 C25.728,25.276736 24.13984,26.708416 22.27456,27.700416 C20.40928,28.692096 18.26624,29.243776 16.15392,29.275776 C14.0416,29.307776 11.95968,28.820416 10.09504,27.894976 C8.23072,26.969536 6.58336,25.606336 5.33248,23.903616 C4.0816,22.200896 3.2272,20.158656 2.888,18.074816 C2.5488,15.990656 2.7248,13.864576 3.37472,11.881216 C3.86592,10.381696 4.62816,8.964096 5.6048,7.735616 L4.12032,7.735616 L4.12032,5.281856 L9.93696,5.281856 L9.93696,10.713536 L7.4832,10.713536 L7.4832,9.229376 C6.6832,10.235456 6.05856,11.396736 5.65632,12.625536 C5.12416,14.251136 4.9808,15.995136 5.25632,17.696896 C5.59872,19.813696 6.5888,21.864896 8.06656,23.445696 C9.83424,25.336256 12.29952,26.554176 14.86592,26.820736 C17.432,27.087296 20.0992,26.402816 22.21728,24.928576 C24.33536,23.454336 25.90496,21.190336 26.54208,18.689856 C27.1792,16.189376 26.88384,13.452416 25.73504,11.142016 C24.58624,8.831616 22.58368,6.948416 20.18912,5.958976 C17.79456,4.969216 15.00768,4.873856 12.60384,5.663616 L11.85472,3.383616 Z"/>
    <path fill="#000" d="M20.8307616,11.0596278 L20.8307616,13.3951584 L17.2826821,13.3951584 L17.2826821,14.7116121 L17.2935293,14.7120243 C18.744969,14.7781767 20.0168039,14.9523162 20.9417368,15.2006454 C21.4044119,15.3247069 21.7801007,15.4656672 22.0575389,15.6336243 C22.1962579,15.7174998 22.3116138,15.808176 22.3990173,15.9163692 C22.4864207,16.0247685 22.5454545,16.1572794 22.5454545,16.2988579 C22.5454545,16.4404364 22.4864207,16.5729473 22.3990173,16.6813466 C22.3116138,16.7895398 22.1962579,16.880216 22.0575389,16.9640915 C21.7801007,17.1320486 21.4044119,17.2730089 20.9419454,17.3970704 C20.0168039,17.6453996 18.744969,17.8195391 17.2935293,17.8856915 L17.2935293,17.8856915 L17.2835165,17.8861037 L17.2835165,22.5796278 L14.7164835,22.5796278 L14.7164835,17.8861037 L14.7064707,17.8856915 C13.255031,17.8195391 11.9831961,17.6453996 11.0580546,17.3970704 C10.5955881,17.2730089 10.2198993,17.1320486 9.94246113,16.9640915 C9.80374205,16.880216 9.68838619,16.7895398 9.60098274,16.6813466 C9.51357929,16.5729473 9.45454545,16.4404364 9.45454545,16.2988579 C9.45454545,16.1572794 9.51357929,16.0247685 9.60098274,15.9163692 C9.68838619,15.808176 9.80374205,15.7174998 9.94246113,15.6336243 C10.2198993,15.4656672 10.5955881,15.3247069 11.0582632,15.2006454 C11.9831961,14.9523162 13.255031,14.7781767 14.7064707,14.7120243 L14.7064707,14.7120243 L14.7173179,14.7116121 L14.7173179,13.3951584 L11.1692384,13.3951584 L11.1692384,11.0596278 L20.8307616,11.0596278 Z M17.2839337,15.22723 L17.2839337,16.5418289 L17.2586931,16.5440958 C17.2259429,16.546981 17.1097526,16.5568729 16.9003181,16.5657345 C16.7956009,16.5700622 16.6675204,16.5743899 16.5152423,16.5774812 C16.4391033,16.5789237 16.3569148,16.5801602 16.2682598,16.5809846 C16.2240365,16.5813967 16.1783531,16.5818089 16.1307923,16.582015 L16.1307923,16.582015 L15.8692077,16.582015 C15.8216469,16.5818089 15.7759635,16.5813967 15.7317402,16.5809846 C15.6430852,16.5801602 15.5608967,16.5789237 15.4847577,16.5774812 C15.3324796,16.5743899 15.2043991,16.5700622 15.0996819,16.5657345 C14.8902474,16.5568729 14.7740571,16.546981 14.7413069,16.5440958 L14.7413069,16.5440958 L14.7160663,16.5418289 L14.7160663,15.22723 C13.4527839,15.2830783 12.3501237,15.4205352 11.5712109,15.6062153 C11.1813372,15.6993645 10.8719833,15.8054969 10.6704756,15.9132779 C10.5697217,15.9670654 10.4965031,16.0216772 10.4535314,16.068664 C10.4105598,16.1158568 10.3986696,16.1498604 10.3986696,16.178918 C10.3986696,16.2079756 10.4105598,16.2419792 10.4535314,16.289172 C10.4965031,16.3361588 10.5697217,16.3907706 10.6706842,16.4445581 C10.8721919,16.5523391 11.1815458,16.6584715 11.5716281,16.7516207 C12.3515839,16.937713 13.4563301,17.075376 14.7214899,17.1310182 L14.7214899,17.1310182 L16,17.1592515 L17.2785101,17.1310182 C18.5436699,17.075376 19.6484161,16.937713 20.4283719,16.7516207 C20.8184542,16.6584715 21.1278081,16.5523391 21.3293158,16.4445581 C21.4302783,16.3907706 21.5034969,16.3361588 21.5464686,16.289172 C21.5894402,16.2419792 21.6013304,16.2079756 21.6013304,16.178918 C21.6013304,16.1498604 21.5894402,16.1158568 21.5464686,16.068664 C21.5034969,16.0216772 21.4302783,15.9670654 21.3295244,15.9132779 C21.1280167,15.8054969 20.8186628,15.6993645 20.4287891,15.6062153 C19.6498763,15.4205352 18.5472161,15.2830783 17.2839337,15.22723 L17.2839337,15.22723 Z"/>
  </g>
</svg>

<svg viewBox="0 0 32 32"><g fill="none" fill-rule="evenodd"><path fill="#FFF" d="M32 16c0-2.094-.417-4.188-1.218-6.123a16.057 16.057 0 00-3.468-5.19 16.052 16.052 0 00-5.191-3.47A16.055 16.055 0 0016 0c-2.094 0-4.188.417-6.123 1.218a16.055 16.055 0 00-5.19 3.468 16.05 16.05 0 00-3.47 5.191A16.049 16.049 0 000 16c0 2.094.416 4.188 1.218 6.123a16.056 16.056 0 003.468 5.19 16.054 16.054 0 005.19 3.469A16.056 16.056 0 0016 32c2.094 0 4.188-.417 6.123-1.218a16.05 16.05 0 005.19-3.468 16.062 16.062 0 003.47-5.191A16.055 16.055 0 0032 16z"/><path fill="#0657F9" d="M11.855 3.384a13.266 13.266 0 0113.213 2.914 13.155 13.155 0 013.417 5.189c.71 1.99.946 4.19.672 6.284a13.194 13.194 0 01-2.243 5.795 13.207 13.207 0 01-4.64 4.134 13.622 13.622 0 01-6.12 1.576 13.207 13.207 0 01-6.059-1.381 13.19 13.19 0 01-4.763-3.991 13.662 13.662 0 01-2.444-5.83 13.13 13.13 0 01.487-6.193 13.391 13.391 0 012.23-4.145H4.12V5.282h5.817v5.432H7.483V9.229a10.961 10.961 0 00-1.827 3.397 10.786 10.786 0 00-.4 5.07 11.107 11.107 0 002.81 5.75 10.952 10.952 0 006.8 3.375 11.023 11.023 0 007.351-1.892 10.999 10.999 0 004.325-6.24c.637-2.5.342-5.237-.807-7.547a10.919 10.919 0 00-5.546-5.183c-2.394-.99-5.181-1.085-7.585-.295l-.75-2.28z"/><path fill="#000" d="M20.83 11.06v2.335h-3.547v1.317h.01c1.452.066 2.724.24 3.649.489.462.124.838.265 1.116.433.138.083.254.174.341.282a.62.62 0 01.146.383.616.616 0 01-.146.382 1.28 1.28 0 01-.341.283c-.278.168-.654.309-1.116.433-.925.248-2.197.423-3.648.489h-.01v4.694h-2.568v-4.694h-.01c-1.451-.066-2.723-.24-3.648-.489-.462-.124-.838-.265-1.116-.433a1.28 1.28 0 01-.341-.283.616.616 0 01-.146-.382.62.62 0 01.146-.383 1.28 1.28 0 01.341-.282c.278-.168.654-.31 1.116-.433.925-.249 2.197-.423 3.648-.489h.011v-1.317H11.17V11.06h9.662zm-3.546 4.167v1.315l-.025.002a7.925 7.925 0 01-.359.022 18.262 18.262 0 01-.77.016h-.26a27.26 27.26 0 01-.77-.016 7.925 7.925 0 01-.359-.022l-.025-.002v-1.315c-1.263.056-2.366.194-3.145.38-.39.092-.699.198-.9.306a.832.832 0 00-.217.156c-.043.047-.055.08-.055.11 0 .029.012.063.055.11a.83.83 0 00.217.156c.201.107.51.213.9.307.78.186 1.885.323 3.15.379l1.279.028 1.279-.028c1.265-.056 2.37-.193 3.15-.38.39-.093.699-.199.9-.306a.83.83 0 00.217-.156c.043-.047.055-.081.055-.11 0-.03-.012-.063-.055-.11a.832.832 0 00-.216-.156c-.202-.108-.511-.214-.901-.307-.78-.185-1.882-.323-3.145-.379z"/></g></svg>
